pix_core/e/numbered_list.svg

<!DOCTYPE svg PUBLIC "-//W3C//DTD SVG 1.1//EN" "http://www.w3.org/Graphics/SVG/1.1/DTD/svg11.dtd" [
	<!ENTITY ns_flows "http://ns.adobe.com/Flows/1.0/">
]><svg xmlns="http://www.w3.org/2000/svg" width="16" height="16" viewBox="0 0 16 16" preserveAspectRatio="xMinYMid meet" overflow="visible"><path d="M2 0v4h-1v-3h-1v-1h2zm4 13h10v2h-10v-2zm0-6h10v2h-10v-2zm0-6v2h10v-2h-10zm-3 8h-2v-.8l2-.9v-2.3h-3v1h2v.8l-2 .9v2.3h3v-1zm-3 2v1h2v1h-2v1h2v1h-2v1h3v-5h-3z" fill="#1F4D87"/></svg>

<!DOCTYPE svg PUBLIC "-//W3C//DTD SVG 1.1//EN" "http://www.w3.org/Graphics/SVG/1.1/DTD/svg11.dtd" [
	<!ENTITY ns_flows "http://ns.adobe.com/Flows/1.0/">
]><svg xmlns="http://www.w3.org/2000/svg" width="16" height="16" viewBox="0 0 16 16" preserveAspectRatio="xMinYMid meet" overflow="visible"><path d="M2 0v4H1V1H0V0h2zm4 13h10v2H6v-2zm0-6h10v2H6V7zm0-6v2h10V1H6zM3 9H1v-.8l2-.9V5H0v1h2v.8l-2 .9V10h3V9zm-3 2v1h2v1H0v1h2v1H0v1h3v-5H0z" fill="#999"/></svg>
